X:1
T:Title
%%score { ( 1 3 ) | ( 2 4 ) }
L:1/8
Q:1/4=100
M:4/4
K:Ab
V:1 treble nm="Grand Piano"
V:3 treble 
V:2 bass 
V:4 bass 
V:1
 [CE][CF][CG][CA] [CB][CA][CE][CF] | [DG]2 [DG]2 G4 | EFGA B2 c2 | A6 z2 | %4
w: Haldor~Lillenas * * * * * * *||||
 [CE][CF][CG][CA] [CB][CA][CE][CF] | G2 G2 G4 | B=ABc G2 F2 | B6[K:bass] z2 | %8
w: ||||
 [Ee][Ee][Ec][EB] [EA][EA][CE][CF] | [DG]2 [DG]2 G4 | ddBB GGFE | z2 c2[K:bass][K:treble] z4 | %12
w: ||||
 eedd c2 BB | AB[FA][=EG] F2 F2 | E=DEA cA[Fd][Ec] | [=Dc]2 [_DB]2 [CA]4 |] %16
w: ||||
V:2
 [A,,A,][A,,A,][A,,E,][A,,E,] [A,,E,][A,,E,][A,,A,][A,,E,] | [B,,E,]2 [B,,E,]2 [E,B,D]4 | %2
 [E,B,D][E,A,D][E,B,D][E,A,C] [E,G,D]2 [E,G,E]2 | z2 F,2 E,2 z2 | %4
 [A,,A,][A,,A,][A,,E,][A,,E,] [A,,E,][A,,E,][A,,A,][A,,A,] | [E,B,D]2 [E,B,D]2 [E,B,D]4 | %6
 [E,G,E][E,_G,E][E,=G,E][E,A,E] [B,E]2 [A,B,=D]2 | [G,B,E]2 [F,A,]2 [E,G,]2 z2 | %8
 [C,A,][C,A,][A,,A,][B,,G,] [C,A,][C,A,][A,,A,][A,,E,] | [B,,E,]2 [B,,E,]2 [E,B,D]4 | %10
 [E,G,D][E,G,D][E,G,D][E,G,D] [E,B,D][E,B,D][E,A,D][E,G,D] | [A,E]2 .[E,A,E]2 [A,,A,]2 [A,E]2 | %12
 [A,CE][A,CE][G,B,E][G,B,E] [A,E]2 [G,C=E][G,CE] | [F,CF][F,CF][C,C][C,B,] [D,A,]2 [=D,A,_C]2 | %14
 [E,A,C][=E,A,_C][_E,A,=C][E,A,C] [E,A,E][E,A,C][D,A,][E,A,] | [B,,A,]2 [E,G,]2 [A,,A,]4 |] %16
V:3
 x8 | x8 | x8 | [A,C]2 D2 C2 z2 | x8 | x8 | x8 | z2 =D2 E2[K:bass] D,2 | x8 | x8 | x8 | %11
 c2 z[K:bass] C,[K:treble] [Ec]2 c2 | x8 | x8 | x8 | x8 |] %16
V:4
 x8 | x8 | x8 | A,,6 z2 | x8 | x8 | x8 | x8 | x8 | x8 | x8 | x8 | x8 | x8 | x8 | x8 |] %16

